public/images/poses-lg/ArmPressure.svg

<svg width="800" height="800" fill="none" xmlns="http://www.w3.org/2000/svg"><path d="M463.93 541.54s-24.706-12.387-29.627-3.194c-7.137 13.337-10.598 26.837-17.872 40.808-3.526 6.768-8.532 13.264-16.804 16.745-9.986 4.231-21.265 1.234-32.29 6.768-11.961 6.03-23.308 15.852-33.352 26.657-10.058 10.829-17.927 25.14-22.913 39.711-.532 1.495-.823 4.161-.982 5.788a2.865 2.865 0 0 0-.008.096c-4.775 2.048-3.16 1.354-7.935 3.403-18.552-16.037-35.255-30.941-52.955-48.744a5.137 5.137 0 0 1-1.303-2.326c-.366-1.383-1.267-3.495-1.011-4.006 1.172-2.435 2.213-4.708 2.901-6.353 4.454-10.6 18.6-36.053 22.626-41.662 12.024-16.715 24.347-30.176 37.688-41.392 25.252-21.241 57.556-31.452 90.107-29.112 14.92 1.072 31.347 2.681 44.07 5.061 0 0 39.32 0 42.129-8.661" fill="#fff"/><path d="M463.93 541.54s-24.706-12.387-29.627-3.194c-7.137 13.337-10.598 26.837-17.872 40.808-3.526 6.768-8.532 13.264-16.804 16.745-9.986 4.231-21.265 1.234-32.29 6.768-11.961 6.03-23.308 15.852-33.352 26.657-10.058 10.829-17.927 25.14-22.913 39.711-.532 1.495-.823 4.161-.982 5.788a2.865 2.865 0 0 0-.008.096c-4.775 2.048-3.16 1.354-7.935 3.403-18.552-16.037-35.255-30.941-52.955-48.744a5.137 5.137 0 0 1-1.303-2.326c-.366-1.383-1.267-3.495-1.011-4.006 1.172-2.435 2.213-4.708 2.901-6.353 4.454-10.6 18.6-36.053 22.626-41.662 12.024-16.715 24.347-30.176 37.688-41.392 25.252-21.241 57.556-31.452 90.107-29.112 14.92 1.072 31.347 2.681 44.07 5.061 0 0 39.32 0 42.129-8.661" stroke="#000" stroke-width="5" stroke-miterlimit="10"/><path d="M463.93 541.54s-24.706-12.387-29.627-3.194c-7.137 13.337-10.598 26.837-17.872 40.808-3.526 6.768-8.532 13.264-16.804 16.745-9.986 4.231-21.265 1.234-32.29 6.768-11.961 6.03-23.308 15.852-33.352 26.657-10.058 10.829-17.927 25.14-22.913 39.711-.532 1.495-.823 4.161-.982 5.788a2.865 2.865 0 0 0-.008.096c-4.775 2.048-3.16 1.354-7.935 3.403-18.552-16.037-35.255-30.941-52.955-48.744a5.137 5.137 0 0 1-1.303-2.326c-.366-1.383-1.267-3.495-1.011-4.006 1.172-2.435 2.213-4.708 2.901-6.353 4.454-10.6 18.6-36.053 22.626-41.662 12.024-16.715 24.347-30.176 37.688-41.392 25.252-21.241 57.556-31.452 90.107-29.112 14.92 1.072 31.347 2.681 44.07 5.061 0 0 39.32 0 42.129-8.661" stroke="#000" stroke-width="5" stroke-miterlimit="10"/><path d="M440.282 509.087s-13.255 20.74-10.25 38.138Z" fill="#fff"/><path d="M440.282 509.087s-13.255 20.74-10.25 38.138" stroke="#000" stroke-width="5" stroke-miterlimit="10"/><path d="M440.282 509.087s-13.255 20.74-10.25 38.138" stroke="#000" stroke-width="5" stroke-miterlimit="10"/><path d="M377.467 538.906c-.252 4.601-.995 10.061-2.186 15.034-.753 3.146-1.093 5.181-1.637 7.296-3.48 13.575-16.358 76.338-28.804 103.064-26.618 57.141-38.195 99.51-42.035 118.899-1.086 5.48 4.295 11.373 10.527 10.947l71.958-1.467c2.162-.149 2.975-5.207 1.264-6.354-11.286-7.569-44.896-8.079-54.904-7.85-2.441.053-4.292-3.614-3.304-5.616l52.677-103.345c.466-.917.878-1.852 1.229-2.808l46.755-125.672c1.388-3.726 2.044-7.673 1.456-11.533l-3.044-16.829" fill="#fff"/><path d="M377.467 538.906c-.252 4.601-.995 10.061-2.186 15.034-.753 3.146-1.093 5.181-1.637 7.296-3.48 13.575-16.358 76.338-28.804 103.064-26.618 57.141-38.195 99.51-42.035 118.899-1.086 5.48 4.295 11.373 10.527 10.947l71.958-1.467c2.162-.149 2.975-5.207 1.264-6.354-11.286-7.569-44.896-8.079-54.904-7.85-2.441.053-4.292-3.614-3.304-5.616l52.677-103.345c.466-.917.878-1.852 1.229-2.808l46.755-125.672c1.388-3.726 2.044-7.673 1.456-11.533l-3.044-16.829" stroke="#000" stroke-width="5" stroke-miterlimit="10"/><path d="M377.467 538.906c-.252 4.601-.995 10.061-2.186 15.034-.753 3.146-1.093 5.181-1.637 7.296-3.48 13.575-16.358 76.338-28.804 103.064-26.618 57.141-38.195 99.51-42.035 118.899-1.086 5.48 4.295 11.373 10.527 10.947l71.958-1.467c2.162-.149 2.975-5.207 1.264-6.354-11.286-7.569-44.896-8.079-54.904-7.85-2.441.053-4.292-3.614-3.304-5.616l52.677-103.345c.466-.917.878-1.852 1.229-2.808l46.755-125.672c1.388-3.726 2.044-7.673 1.456-11.533l-3.044-16.829" stroke="#000" stroke-width="5" stroke-miterlimit="10"/><path d="M481.308 506.2c7.619-7.563 17.512-5.528 28.215-10.258 17.001-7.516 40.03 9.999 44.061 30.852 5.318 27.53-88.645 53.926-94.229 38.646-3.31-9.049.055-28.044 11.978-44.374 3.831-5.252 9.975-14.866 9.975-14.866Z" fill="#fff" stroke="#000" stroke-width="5" stroke-miterlimit="10"/><path d="M481.308 506.2c7.619-7.563 17.512-5.528 28.215-10.258 17.001-7.516 40.03 9.999 44.061 30.852 5.318 27.53-88.645 53.926-94.229 38.646-3.31-9.049.055-28.044 11.978-44.374 3.831-5.252 9.975-14.866 9.975-14.866Z" stroke="#000" stroke-width="5" stroke-miterlimit="10"/><path d="M545.439 541.068c-16.635 4.043-49.718-.524-49.647-23.313.074-25.614-11.432-12.122-15.357-9.075-3.925 3.048-9.306 16.92-11.157 14.854-1.849-2.058 1.771-38.333 24.813-47.918 23.042-9.584 36.969-6.907 47.512 3.868 10.543 10.772 18.44 36.85 13.999 51.554-4.439 14.707-10.163 10.03-10.163 10.03Z" fill="#100200" stroke="#000" stroke-width="5" stroke-miterlimit="10"/><path d="M530.035 481.525c11.783.705 39.379-6.309 23.467-34.631-13.077-23.272-1.682-24.467-3.737-46.875-1.65-18.011-25.855-25.238-50.23 2.038-22.185 24.825-4.034 34.071 12.79 47.855 16.821 13.785 17.71 31.613 17.71 31.613Z" fill="#100200" stroke="#000" stroke-width="5" stroke-miterlimit="10"/><path d="M252.575 610.815s-32.989 66.399 17.564 86.605c50.554 20.208 132.002-86.6 132.002-86.6s15.464 26.488 56.264 64.238c3.258 3.018 4.844 7.56 4.074 12.001-1.311 7.591-2.496 19.383 1.45 24.795 8.426 11.547 16.852 14.435 33.704 14.435 16.851 0 42.128 34.639 42.128 34.639s16.852 11.547 14.043-8.659c-1.824-13.123-28.527-44.513-47.021-64.908a142.533 142.533 0 0 1-26.345-41.704c-8.853-21.594-24.138-55.259-44.593-86.795-4.109-6.334-19.603-11.057-22.469-11.547-16.852-2.887-117.959 69.28-117.959 69.28s-26.704-11.56-42.842-5.78Z" fill="#fff" stroke="#000" stroke-width="5" stroke-miterlimit="10"/><path d="M252.575 610.815s-32.989 66.399 17.564 86.605c50.554 20.208 132.002-86.6 132.002-86.6s15.464 26.488 56.264 64.238c3.258 3.018 4.844 7.56 4.074 12.001-1.311 7.591-2.496 19.383 1.45 24.795 8.426 11.547 16.852 14.435 33.704 14.435 16.851 0 42.128 34.639 42.128 34.639s16.852 11.547 14.043-8.659c-1.824-13.123-28.527-44.513-47.021-64.908a142.533 142.533 0 0 1-26.345-41.704c-8.853-21.594-24.138-55.259-44.593-86.795-4.109-6.334-19.603-11.057-22.469-11.547-16.852-2.887-117.959 69.28-117.959 69.28s-26.704-11.56-42.842-5.78ZM295.416 616.593l-19.66 14.434M295.416 616.593l-19.66 14.434" stroke="#000" stroke-width="5" stroke-miterlimit="10"/><path d="M455.098 671.97s22.979-3.104 29.951-16.249Z" fill="#fff"/><path d="M455.098 671.97s22.979-3.104 29.951-16.249" stroke="#000" stroke-width="5" stroke-miterlimit="10"/><path d="M455.098 671.97s22.979-3.104 29.951-16.249" stroke="#000" stroke-width="5" stroke-miterlimit="10"/><path d="M310.156 754.209s10.329 11.691 24.476 6.315Z" fill="#fff"/><path d="M310.156 754.209s10.329 11.691 24.476 6.315" stroke="#000" stroke-width="5" stroke-miterlimit="10"/><path d="M310.156 754.209s10.329 11.691 24.476 6.315" stroke="#000" stroke-width="5" stroke-miterlimit="10"/></svg>

<svg width="800" height="800" viewBox="0 0 800 800" fill="none" xmlns="http://www.w3.org/2000/svg">
<path d="M463.93 541.54C463.93 541.54 439.224 529.153 434.303 538.346C427.166 551.683 423.705 565.183 416.431 579.154C412.905 585.922 407.899 592.418 399.627 595.899C389.641 600.13 378.362 597.133 367.337 602.667C355.376 608.697 344.029 618.519 333.985 629.324C323.927 640.153 316.058 654.464 311.072 669.035C310.54 670.53 310.249 673.196 310.09 674.823C310.087 674.854 310.084 674.887 310.082 674.919C305.307 676.967 306.922 676.273 302.147 678.322C283.595 662.285 266.892 647.381 249.192 629.578C248.557 628.938 248.12 628.131 247.889 627.252C247.523 625.869 246.622 623.757 246.878 623.246C248.05 620.811 249.091 618.538 249.779 616.893C254.233 606.293 268.379 580.84 272.405 575.231C284.429 558.516 296.752 545.055 310.093 533.839C335.345 512.598 367.649 502.387 400.2 504.727C415.12 505.799 431.547 507.408 444.27 509.788C444.27 509.788 483.59 509.788 486.399 501.127" fill="white"/>
<path d="M463.93 541.54C463.93 541.54 439.224 529.153 434.303 538.346C427.166 551.683 423.705 565.183 416.431 579.154C412.905 585.922 407.899 592.418 399.627 595.899C389.641 600.13 378.362 597.133 367.337 602.667C355.376 608.697 344.029 618.519 333.985 629.324C323.927 640.153 316.058 654.464 311.072 669.035C310.54 670.53 310.249 673.196 310.09 674.823C310.087 674.854 310.084 674.887 310.082 674.919C305.307 676.967 306.922 676.273 302.147 678.322C283.595 662.285 266.892 647.381 249.192 629.578C248.557 628.938 248.12 628.131 247.889 627.252C247.523 625.869 246.622 623.757 246.878 623.246C248.05 620.811 249.091 618.538 249.779 616.893C254.233 606.293 268.379 580.84 272.405 575.231C284.429 558.516 296.752 545.055 310.093 533.839C335.345 512.598 367.649 502.387 400.2 504.727C415.12 505.799 431.547 507.408 444.27 509.788C444.27 509.788 483.59 509.788 486.399 501.127" stroke="black" stroke-width="5" stroke-miterlimit="10"/>
<path d="M463.93 541.54C463.93 541.54 439.224 529.153 434.303 538.346C427.166 551.683 423.705 565.183 416.431 579.154C412.905 585.922 407.899 592.418 399.627 595.899C389.641 600.13 378.362 597.133 367.337 602.667C355.376 608.697 344.029 618.519 333.985 629.324C323.927 640.153 316.058 654.464 311.072 669.035C310.54 670.53 310.249 673.196 310.09 674.823C310.087 674.854 310.084 674.887 310.082 674.919C305.307 676.967 306.922 676.273 302.147 678.322C283.595 662.285 266.892 647.381 249.192 629.578C248.557 628.938 248.12 628.131 247.889 627.252C247.523 625.869 246.622 623.757 246.878 623.246C248.05 620.811 249.091 618.538 249.779 616.893C254.233 606.293 268.379 580.84 272.405 575.231C284.429 558.516 296.752 545.055 310.093 533.839C335.345 512.598 367.649 502.387 400.2 504.727C415.12 505.799 431.547 507.408 444.27 509.788C444.27 509.788 483.59 509.788 486.399 501.127" stroke="black" stroke-width="5" stroke-miterlimit="10"/>
<path d="M440.282 509.087C440.282 509.087 427.027 529.827 430.032 547.225Z" fill="white"/>
<path d="M440.282 509.087C440.282 509.087 427.027 529.827 430.032 547.225" stroke="black" stroke-width="5" stroke-miterlimit="10"/>
<path d="M440.282 509.087C440.282 509.087 427.027 529.827 430.032 547.225" stroke="black" stroke-width="5" stroke-miterlimit="10"/>
<path d="M377.467 538.906C377.215 543.507 376.472 548.967 375.281 553.94C374.528 557.086 374.188 559.121 373.644 561.236C370.164 574.811 357.286 637.574 344.84 664.3C318.222 721.441 306.645 763.81 302.805 783.199C301.719 788.679 307.1 794.572 313.332 794.146L385.29 792.679C387.452 792.53 388.265 787.472 386.554 786.325C375.268 778.756 341.658 778.246 331.65 778.475C329.209 778.528 327.358 774.861 328.346 772.859L381.023 669.514C381.489 668.597 381.901 667.662 382.252 666.706L429.007 541.034C430.395 537.308 431.051 533.361 430.463 529.501L427.419 512.672" fill="white"/>
<path d="M377.467 538.906C377.215 543.507 376.472 548.967 375.281 553.94C374.528 557.086 374.188 559.121 373.644 561.236C370.164 574.811 357.286 637.574 344.84 664.3C318.222 721.441 306.645 763.81 302.805 783.199C301.719 788.679 307.1 794.572 313.332 794.146L385.29 792.679C387.452 792.53 388.265 787.472 386.554 786.325C375.268 778.756 341.658 778.246 331.65 778.475C329.209 778.528 327.358 774.861 328.346 772.859L381.023 669.514C381.489 668.597 381.901 667.662 382.252 666.706L429.007 541.034C430.395 537.308 431.051 533.361 430.463 529.501L427.419 512.672" stroke="black" stroke-width="5" stroke-miterlimit="10"/>
<path d="M377.467 538.906C377.215 543.507 376.472 548.967 375.281 553.94C374.528 557.086 374.188 559.121 373.644 561.236C370.164 574.811 357.286 637.574 344.84 664.3C318.222 721.441 306.645 763.81 302.805 783.199C301.719 788.679 307.1 794.572 313.332 794.146L385.29 792.679C387.452 792.53 388.265 787.472 386.554 786.325C375.268 778.756 341.658 778.246 331.65 778.475C329.209 778.528 327.358 774.861 328.346 772.859L381.023 669.514C381.489 668.597 381.901 667.662 382.252 666.706L429.007 541.034C430.395 537.308 431.051 533.361 430.463 529.501L427.419 512.672" stroke="black" stroke-width="5" stroke-miterlimit="10"/>
<path d="M481.308 506.2C488.927 498.637 498.82 500.672 509.523 495.942C526.524 488.426 549.553 505.941 553.584 526.794C558.902 554.324 464.939 580.72 459.355 565.44C456.045 556.391 459.41 537.396 471.333 521.066C475.164 515.814 481.308 506.2 481.308 506.2Z" fill="white" stroke="black" stroke-width="5" stroke-miterlimit="10"/>
<path d="M481.308 506.2C488.927 498.637 498.82 500.672 509.523 495.942C526.524 488.426 549.553 505.941 553.584 526.794C558.902 554.324 464.939 580.72 459.355 565.44C456.045 556.391 459.41 537.396 471.333 521.066C475.164 515.814 481.308 506.2 481.308 506.2Z" stroke="black" stroke-width="5" stroke-miterlimit="10"/>
<path d="M545.439 541.068C528.804 545.111 495.721 540.544 495.792 517.755C495.866 492.141 484.36 505.633 480.435 508.68C476.51 511.728 471.129 525.6 469.278 523.534C467.429 521.476 471.049 485.201 494.091 475.616C517.133 466.032 531.06 468.709 541.603 479.484C552.146 490.256 560.043 516.334 555.602 531.038C551.163 545.745 545.439 541.068 545.439 541.068Z" fill="#100200" stroke="black" stroke-width="5" stroke-miterlimit="10"/>
<path d="M530.035 481.525C541.818 482.23 569.414 475.216 553.502 446.894C540.425 423.622 551.82 422.427 549.765 400.019C548.115 382.008 523.91 374.781 499.535 402.057C477.35 426.882 495.501 436.128 512.325 449.912C529.146 463.697 530.035 481.525 530.035 481.525Z" fill="#100200" stroke="black" stroke-width="5" stroke-miterlimit="10"/>
<path d="M252.575 610.815C252.575 610.815 219.586 677.214 270.139 697.42C320.693 717.628 402.141 610.82 402.141 610.82C402.141 610.82 417.605 637.308 458.405 675.058C461.663 678.076 463.249 682.618 462.479 687.059C461.168 694.65 459.983 706.442 463.929 711.854C472.355 723.401 480.781 726.289 497.633 726.289C514.484 726.289 539.761 760.928 539.761 760.928C539.761 760.928 556.613 772.475 553.804 752.269C551.98 739.146 525.277 707.756 506.783 687.361C495.694 675.138 486.75 661.054 480.438 645.657C471.585 624.063 456.3 590.398 435.845 558.862C431.736 552.528 416.242 547.805 413.376 547.315C396.524 544.428 295.417 616.595 295.417 616.595C295.417 616.595 268.713 605.035 252.575 610.815Z" fill="white" stroke="black" stroke-width="5" stroke-miterlimit="10"/>
<path d="M252.575 610.815C252.575 610.815 219.586 677.214 270.139 697.42C320.693 717.628 402.141 610.82 402.141 610.82C402.141 610.82 417.605 637.308 458.405 675.058C461.663 678.076 463.249 682.618 462.479 687.059C461.168 694.65 459.983 706.442 463.929 711.854C472.355 723.401 480.781 726.289 497.633 726.289C514.484 726.289 539.761 760.928 539.761 760.928C539.761 760.928 556.613 772.475 553.804 752.269C551.98 739.146 525.277 707.756 506.783 687.361C495.694 675.138 486.75 661.054 480.438 645.657C471.585 624.063 456.3 590.398 435.845 558.862C431.736 552.528 416.242 547.805 413.376 547.315C396.524 544.428 295.417 616.595 295.417 616.595C295.417 616.595 268.713 605.035 252.575 610.815Z" stroke="black" stroke-width="5" stroke-miterlimit="10"/>
<path d="M295.416 616.593L275.756 631.027" stroke="black" stroke-width="5" stroke-miterlimit="10"/>
<path d="M295.416 616.593L275.756 631.027" stroke="black" stroke-width="5" stroke-miterlimit="10"/>
<path d="M455.098 671.97C455.098 671.97 478.077 668.866 485.049 655.721Z" fill="white"/>
<path d="M455.098 671.97C455.098 671.97 478.077 668.866 485.049 655.721" stroke="black" stroke-width="5" stroke-miterlimit="10"/>
<path d="M455.098 671.97C455.098 671.97 478.077 668.866 485.049 655.721" stroke="black" stroke-width="5" stroke-miterlimit="10"/>
<path d="M310.156 754.209C310.156 754.209 320.485 765.9 334.632 760.524Z" fill="white"/>
<path d="M310.156 754.209C310.156 754.209 320.485 765.9 334.632 760.524" stroke="black" stroke-width="5" stroke-miterlimit="10"/>
<path d="M310.156 754.209C310.156 754.209 320.485 765.9 334.632 760.524" stroke="black" stroke-width="5" stroke-miterlimit="10"/>
</svg>
